assets/images/svg/Bird.svg

<?xml version="1.0" encoding="UTF-8"?><svg xmlns="http://www.w3.org/2000/svg" viewBox="0 0 216.82 163.97"><defs><style>.d,.e{fill:#ff8e00;}.f{fill:#5d1201;}.g{fill:#5f1100;}.e,.h{stroke-miterlimit:10;}.e,.h,.i{stroke:#5f1100;stroke-width:10px;}.h,.i{fill:#00b4ff;}.i{stroke-linecap:round;stroke-linejoin:round;}</style></defs><g id="a"/><g id="b"><g id="c"><g><g><path class="d" d="M28.87,76.61c-2.66-.69-4.6-2.81-4.95-5.4-.34-2.55,.94-5.05,3.25-6.37l21.73-12.41,7.25,31.22-27.29-7.04Z"/><path class="g" d="M45.56,60.1l3.87,16.65-19.3-4.98c-1.43-.37-1.71-1.88-.47-2.59l15.9-9.08m6.7-15.34l-11.66,6.66-15.9,9.08c-4.09,2.34-6.34,6.8-5.73,11.38,.62,4.62,4.02,8.38,8.66,9.58l19.3,4.98,15.97,4.12-3.73-16.06-3.87-16.65-3.04-13.08h0Z"/></g><path class="i" d="M109.44,79.24l102.38,56.47s-74.16,51.41-115.44,1.38c-11.33-13.73-19.74-34.06-15.98-43.46,5.73-14.34,29.04-14.39,29.04-14.39Z"/><circle class="h" cx="81.35" cy="60.54" r="31.43"/><ellipse class="f" cx="74.75" cy="54.33" rx="5.37" ry="7.16"/><g><path class="e" d="M93.34,45.5c-27.06-19.86-37.8-17.8-39.03-21.78-1.55-4.97,13.94-3.66,17.83-3.74,3.88-.08,8.22-6.12,17.58-8.03,9.05-1.85,19.13,1.7,23.44,4.85l.04,.03c4.3,3.16,10.85,11.82,12.12,21.24,1.31,9.74-2.8,15.95-1.61,19.76,1.2,3.81,7.47,18.47,2.41,18.59-4.05,.1-5.67-11.04-32.74-30.9l-.04-.03Z"/><path class="e" d="M127.82,21.17s-5.6-4.88-17.5-5.88"/><path class="e" d="M104.79,4.26s6.3,3.86,11.12,15.12"/></g><path class="i" d="M103.19,84.27c1.98-.72,84.69-41.13,84.69-41.13,0,0,16.22,52.03-54.36,72.06"/><g><path class="e" d="M5,105.63h27.15v13.45c0,7.49-6.08,13.58-13.58,13.58h0c-7.49,0-13.58-6.08-13.58-13.58v-13.45h0Z"/><path class="i" d="M32.15,105.63v-10.73c0-5.72,3.53-10.85,8.88-12.9h0"/></g></g></g></g></svg>

<svg width="217" height="164" viewBox="0 0 217 164" fill="none" xmlns="http://www.w3.org/2000/svg">
<g clip-path="url(#clip0_2_2)">
<path d="M28.87 76.61C26.21 75.92 24.27 73.8 23.92 71.21C23.58 68.66 24.86 66.16 27.17 64.84L48.9 52.43L56.15 83.65L28.86 76.61H28.87Z" fill="#FF8E00"/>
<path d="M45.56 60.1L49.43 76.75L30.13 71.77C28.7 71.4 28.42 69.89 29.66 69.18L45.56 60.1V60.1ZM52.26 44.76L40.6 51.42L24.7 60.5C20.61 62.84 18.36 67.3 18.97 71.88C19.59 76.5 22.99 80.26 27.63 81.46L46.93 86.44L62.9 90.56L59.17 74.5L55.3 57.85L52.26 44.77V44.76Z" fill="#5F1100"/>
<path d="M109.44 79.24L211.82 135.71C211.82 135.71 137.66 187.12 96.38 137.09C85.05 123.36 76.64 103.03 80.4 93.63C86.13 79.29 109.44 79.24 109.44 79.24V79.24Z" fill="#00B4FF" stroke="#5F1100" stroke-width="10" stroke-linecap="round" stroke-linejoin="round"/>
<path d="M81.35 91.97C98.7083 91.97 112.78 77.8983 112.78 60.54C112.78 43.1817 98.7083 29.11 81.35 29.11C63.9917 29.11 49.92 43.1817 49.92 60.54C49.92 77.8983 63.9917 91.97 81.35 91.97Z" fill="#00B4FF" stroke="#5F1100" stroke-width="10" stroke-miterlimit="10"/>
<path d="M74.75 61.49C77.7158 61.49 80.12 58.2843 80.12 54.33C80.12 50.3756 77.7158 47.17 74.75 47.17C71.7842 47.17 69.38 50.3756 69.38 54.33C69.38 58.2843 71.7842 61.49 74.75 61.49Z" fill="#5D1201"/>
<path d="M93.34 45.5C66.28 25.64 55.54 27.7 54.31 23.72C52.76 18.75 68.25 20.06 72.14 19.98C76.02 19.9 80.36 13.86 89.72 11.95C98.77 10.1 108.85 13.65 113.16 16.8L113.2 16.83C117.5 19.99 124.05 28.65 125.32 38.07C126.63 47.81 122.52 54.02 123.71 57.83C124.91 61.64 131.18 76.3 126.12 76.42C122.07 76.52 120.45 65.38 93.38 45.52L93.34 45.49V45.5Z" fill="#FF8E00" stroke="#5F1100" stroke-width="10" stroke-miterlimit="10"/>
<path d="M127.82 21.17C127.82 21.17 122.22 16.29 110.32 15.29Z" fill="#FF8E00"/>
<path d="M127.82 21.17C127.82 21.17 122.22 16.29 110.32 15.29" stroke="#5F1100" stroke-width="10" stroke-miterlimit="10"/>
<path d="M104.79 4.25999C104.79 4.25999 111.09 8.11999 115.91 19.38Z" fill="#FF8E00"/>
<path d="M104.79 4.25999C104.79 4.25999 111.09 8.11999 115.91 19.38" stroke="#5F1100" stroke-width="10" stroke-miterlimit="10"/>
<path d="M103.19 84.27C105.17 83.55 187.88 43.14 187.88 43.14C187.88 43.14 204.1 95.17 133.52 115.2" fill="#00B4FF"/>
<path d="M103.19 84.27C105.17 83.55 187.88 43.14 187.88 43.14C187.88 43.14 204.1 95.17 133.52 115.2" stroke="#5F1100" stroke-width="10" stroke-linecap="round" stroke-linejoin="round"/>
<path d="M5.00001 105.63H32.15V119.08C32.15 126.57 26.07 132.66 18.57 132.66C11.08 132.66 4.99001 126.58 4.99001 119.08V105.63H5.00001Z" fill="#FF8E00" stroke="#5F1100" stroke-width="10" stroke-miterlimit="10"/>
<path d="M32.15 105.63V94.9C32.15 89.18 35.68 84.05 41.03 82" fill="#00B4FF"/>
<path d="M32.15 105.63V94.9C32.15 89.18 35.68 84.05 41.03 82" stroke="#5F1100" stroke-width="10" stroke-linecap="round" stroke-linejoin="round"/>
</g>
<defs>
<clipPath id="clip0_2_2">
<rect width="216.82" height="163.97" fill="white"/>
</clipPath>
</defs>
</svg>
